X: 1
P: Kitchen Girl
R: Hornpipe, reel
C: arr. T. Traub 8-7-05
M: 4/4
K: G
|: e2 |"A"a4 "G"g4|"A"efed c2 cd|"A"edef gaba|"G"g2 e2 e4|"A"Acea "G"g2 gf|"A"efed c2 cd|
"A"edef "G"gfed|"A"c2 A2 A2 :||: B2|"Am"c2 c2 BAGB|"Am"ABAG "E"E2 E2|"Am"A2 B2 c2 d2|
"E"e4 e4|"Am"cBAc "G"BAGB|"Am"ABAG E2 AB|"Am"cBAc "G"BAGB|"Am"A4 A2 :|
